Adwaita++-Dark/actions/22/fitbest.svg

<svg height="22" viewBox="0 0 22 22" width="22" xmlns="http://www.w3.org/2000/svg">
  <path d="m11 3-1.5 2-1.5 2h2v3h-3v-2l-2 1.5-2 1.5 2 1.5 2 1.5v-2h3v3h-2l1.5 2 1.5 2 1.5-2 1.5-2h-2v-3h3v2l2-1.5 2-1.5-2-1.5-2-1.5v2h-3v-3h2l-1.5-2z" fill="#e6ddff"/>
</svg>

<svg xmlns="http://www.w3.org/2000/svg" width="22" height="22" version="1.1" viewBox="0 0 22 22">
 <defs>
  <style id="current-color-scheme" type="text/css">
   .ColorScheme-Text { color:#E6DDFF; } .ColorScheme-Highlight { color:#4285f4; }
  </style>
 </defs>
 <path style="fill:currentColor" class="ColorScheme-Text" d="M 11,3 9.5,5 8,7 h 2 v 3 H 7 V 8 L 5,9.5 3,11 5,12.5 7,14 v -2 h 3 v 3 H 8 l 1.5,2 1.5,2 1.5,-2 1.5,-2 h -2 v -3 h 3 v 2 L 17,12.5 19,11 17,9.5 15,8 v 2 H 12 V 7 h 2 L 12.5,5 Z"/>
</svg>
